public/images/mongodb.svg

<svg width="25" height="56" viewBox="0 0 25 56" fill="none" xmlns="http://www.w3.org/2000/svg">
<g id="Group 61">
<path id="Vector" d="M12.1928 0.899536L13.6529 3.65554C13.9812 4.16413 14.3369 4.6143 14.7558 5.03354C15.9839 6.25231 17.1286 7.55309 18.1822 8.927C20.6562 12.1916 22.325 15.817 23.5167 19.738C24.2314 22.1331 24.6195 24.5902 24.6485 27.0747C24.7682 34.5025 22.2343 40.8805 17.1255 46.1812C16.2945 47.0217 15.3968 47.7929 14.4412 48.487C13.9351 48.487 13.6957 48.097 13.4871 47.7378C13.1072 47.0719 12.8544 46.3406 12.7416 45.5815C12.5621 44.6829 12.4441 43.7843 12.5023 42.8564V42.4372C12.4612 42.3478 12.015 1.11088 12.1928 0.899536V0.899536Z" fill="#599636"/>
<path id="Vector_2" d="M12.1928 0.808501C12.133 0.688227 12.0732 0.779292 12.0133 0.837711C12.0424 1.43908 11.8338 1.97516 11.5072 2.48719C11.1482 2.99578 10.6728 3.38581 10.1958 3.80506C7.54566 6.11089 5.45973 8.89611 3.78927 12.0112C1.56656 16.2036 0.421007 20.6968 0.096149 25.427C-0.0526018 27.1332 0.63302 33.1538 1.16818 34.8909C2.62833 39.5025 5.25113 43.3668 8.64847 46.7207C9.48284 47.5283 10.3753 48.2774 11.2986 48.9974C11.5671 48.9974 11.5961 48.7568 11.6577 48.5781C11.7754 48.1957 11.8651 47.8052 11.9261 47.4097L12.5245 42.9183L12.1928 0.808501Z" fill="#6CAC48"/>
<path id="Vector_3" d="M13.653 50.3117C13.7128 49.6245 14.0411 49.054 14.3984 48.4853C14.0394 48.3358 13.7727 48.0386 13.5641 47.7069C13.3842 47.393 13.2353 47.0621 13.1195 46.719C12.7023 45.4613 12.6134 44.1417 12.4937 42.8565V42.0781C12.345 42.1984 12.3142 43.2156 12.3142 43.3668C12.2272 44.7251 12.0478 46.0759 11.7773 47.4097C11.6884 47.9492 11.6286 48.487 11.2986 48.9664C11.2986 49.0265 11.2986 49.0867 11.3277 49.176C11.8645 50.7636 12.0116 52.3804 12.1022 54.0282V54.6296C12.1022 55.3478 12.0731 55.1966 12.6664 55.4371C12.9058 55.5265 13.1725 55.5574 13.4119 55.7361C13.5914 55.7361 13.6205 55.5866 13.6205 55.4663L13.5316 54.4784V51.7224C13.5025 51.2413 13.5914 50.7636 13.6513 50.3135L13.653 50.3117Z" fill="#C2BFBF"/>
</g>
</svg>

<svg xmlns="http://www.w3.org/2000/svg" width="25" height="56" fill="none"><path fill="#599636" d="m12.193.9 1.46 2.756c.328.508.684.958 1.103 1.378a38.446 38.446 0 0 1 3.426 3.893c2.474 3.265 4.143 6.89 5.335 10.811a26.701 26.701 0 0 1 1.131 7.337c.12 7.427-2.414 13.805-7.523 19.106a21.748 21.748 0 0 1-2.684 2.306c-.506 0-.745-.39-.954-.75a6.187 6.187 0 0 1-.745-2.156c-.18-.898-.298-1.797-.24-2.725v-.419c-.04-.09-.487-41.326-.31-41.537Z"/><path fill="#6CAC48" d="M12.193.809c-.06-.12-.12-.03-.18.029.03.601-.18 1.137-.506 1.65-.359.508-.834.898-1.311 1.317-2.65 2.306-4.736 5.091-6.407 8.206C1.567 16.204.421 20.697.096 25.427c-.149 1.706.537 7.727 1.072 9.464 1.46 4.611 4.083 8.476 7.48 11.83a32.732 32.732 0 0 0 2.65 2.276c.27 0 .298-.24.36-.419.117-.382.207-.773.268-1.168l.598-4.492-.331-42.11Z"/><path fill="#C2BFBF" d="M13.653 50.312c.06-.688.388-1.258.745-1.827-.359-.15-.625-.446-.834-.778a5.567 5.567 0 0 1-.444-.988c-.418-1.258-.507-2.577-.626-3.863v-.778c-.149.12-.18 1.138-.18 1.289a29.984 29.984 0 0 1-.537 4.043c-.089.54-.148 1.077-.478 1.556 0 .06 0 .12.029.21.537 1.588.684 3.204.774 4.852v.602c0 .718-.029.567.564.807.24.09.506.12.746.3.18 0 .208-.15.208-.27l-.088-.989v-2.756c-.03-.48.06-.958.12-1.409l.001-.001Z"/></svg>
